X:1
T: Bonnie Charlie
T: 2nd Setting
R:Strathspey
Q:128
K:Dm
M:4/4
L:1/16
|:A,4|D4 D2E2 F4 F2G2|A2B2 G2A2 F4 ((3G2A2B2)|A4 D4 D6F2|E2F2 G2E2 C4 F3E|
D4 D2E2 F4 F2G2|A2B2 G2A2 F4 ((3G2A2B2)|A4 D4 F2E2 D2^C2|D8 D4:|
A4|d3e d2c2 A4 A4|d3e d2c2 A6f2|e2f2 g2e2 c4c4|e2f2 g2e2 c4 f3g|
a4 f3a g4 e3g|f4 d3f f2e2 d2^c2|d6e2 f2e2 d2c2|A4d4d6A2|
d3e d2c2 A4A4|f4f4 A6c2|B2A2 G2F2 G2F2 E2D2|E2F2 G2E2 C4 F3G|
A4 F3A c4 A3c|d2e2 f2g2 f2e2 d2^c2|d2=c2 B2A2 A2G2 F2E2|D8D4||
